svg/cpu.svg

<?xml version="1.0" encoding="UTF-8"?>
<svg xmlns="http://www.w3.org/2000/svg" xmlns:xlink="http://www.w3.org/1999/xlink" width="32" height="32" viewBox="0 0 32 32">
<path fill-rule="nonzero" fill="rgb(0%, 0%, 0%)" fill-opacity="1" d="M 8.320312 0.640625 C 8.148438 0.640625 7.988281 0.707031 7.867188 0.828125 C 7.746094 0.949219 7.679688 1.109375 7.679688 1.28125 L 7.679688 3.199219 L 8.960938 3.199219 L 8.960938 1.28125 C 8.960938 0.925781 8.671875 0.640625 8.320312 0.640625 M 13.441406 0.640625 C 13.089844 0.640625 12.800781 0.929688 12.800781 1.28125 L 12.800781 3.199219 L 14.078125 3.199219 L 14.078125 1.28125 C 14.078125 0.929688 13.792969 0.644531 13.441406 0.640625 M 18.558594 0.640625 C 18.207031 0.644531 17.921875 0.929688 17.921875 1.28125 L 17.921875 3.199219 L 19.199219 3.199219 L 19.199219 1.28125 C 19.199219 1.109375 19.132812 0.949219 19.011719 0.828125 C 18.890625 0.707031 18.730469 0.640625 18.558594 0.640625 M 23.679688 0.640625 C 23.324219 0.640625 23.039062 0.925781 23.039062 1.28125 L 23.039062 3.199219 L 24.320312 3.199219 L 24.320312 1.28125 C 24.320312 1.109375 24.253906 0.949219 24.132812 0.828125 C 24.011719 0.707031 23.851562 0.640625 23.679688 0.640625 M 5.761719 3.839844 C 4.699219 3.839844 3.839844 4.699219 3.839844 5.761719 L 3.839844 26.238281 C 3.839844 26.746094 4.042969 27.238281 4.402344 27.597656 C 4.761719 27.957031 5.253906 28.160156 5.761719 28.160156 L 26.238281 28.160156 C 26.746094 28.160156 27.238281 27.957031 27.597656 27.597656 C 27.957031 27.238281 28.160156 26.746094 28.160156 26.238281 L 28.160156 5.761719 C 28.160156 5.253906 27.957031 4.761719 27.597656 4.402344 C 27.238281 4.042969 26.746094 3.839844 26.238281 3.839844 Z M 7.679688 6.398438 C 8.386719 6.398438 8.960938 6.972656 8.960938 7.679688 C 8.960938 8.390625 8.386719 8.960938 7.679688 8.960938 C 6.96875 8.960938 6.394531 8.386719 6.398438 7.679688 C 6.398438 6.972656 6.972656 6.398438 7.679688 6.398438 M 1.28125 7.679688 C 0.941406 7.703125 0.679688 7.984375 0.679688 8.320312 C 0.683594 8.65625 0.941406 8.9375 1.28125 8.960938 L 3.199219 8.960938 L 3.199219 7.679688 Z M 28.800781 7.679688 L 28.800781 8.960938 L 30.71875 8.960938 C 31.050781 8.933594 31.308594 8.65625 31.308594 8.320312 C 31.308594 7.984375 31.050781 7.707031 30.71875 7.679688 Z M 1.28125 12.800781 C 0.925781 12.800781 0.640625 13.085938 0.640625 13.4375 C 0.640625 13.792969 0.925781 14.078125 1.28125 14.078125 L 3.199219 14.078125 L 3.199219 12.800781 Z M 28.800781 12.800781 L 28.800781 14.078125 L 30.71875 14.078125 C 31.070312 14.078125 31.355469 13.792969 31.355469 13.4375 C 31.355469 13.085938 31.070312 12.800781 30.71875 12.800781 Z M 1.28125 17.921875 C 1.046875 17.914062 0.824219 18.03125 0.707031 18.234375 C 0.585938 18.4375 0.585938 18.6875 0.707031 18.886719 C 0.824219 19.089844 1.046875 19.210938 1.28125 19.199219 L 3.199219 19.199219 L 3.199219 17.921875 Z M 28.800781 17.921875 L 28.800781 19.199219 L 30.71875 19.199219 C 30.953125 19.210938 31.171875 19.089844 31.292969 18.886719 C 31.414062 18.6875 31.414062 18.433594 31.292969 18.234375 C 31.171875 18.035156 30.953125 17.914062 30.71875 17.921875 Z M 1.28125 23.039062 C 0.941406 23.0625 0.683594 23.339844 0.679688 23.679688 C 0.679688 24.015625 0.941406 24.296875 1.28125 24.320312 L 3.199219 24.320312 L 3.199219 23.039062 Z M 24.320312 23.039062 C 25.027344 23.039062 25.601562 23.617188 25.597656 24.324219 C 25.597656 25.03125 25.023438 25.605469 24.3125 25.601562 C 23.605469 25.601562 23.035156 25.027344 23.035156 24.320312 C 23.035156 23.613281 23.609375 23.039062 24.320312 23.039062 M 28.800781 23.039062 L 28.800781 24.320312 L 30.71875 24.320312 C 31.070312 24.320312 31.359375 24.035156 31.359375 23.679688 C 31.359375 23.328125 31.070312 23.039062 30.71875 23.039062 Z M 7.679688 28.800781 L 7.679688 30.71875 C 7.679688 30.890625 7.746094 31.050781 7.867188 31.171875 C 7.988281 31.292969 8.148438 31.359375 8.320312 31.359375 C 8.488281 31.359375 8.652344 31.292969 8.773438 31.171875 C 8.894531 31.050781 8.960938 30.890625 8.960938 30.71875 L 8.960938 28.800781 Z M 12.800781 28.800781 L 12.800781 30.71875 C 12.800781 31.070312 13.085938 31.359375 13.4375 31.359375 C 13.605469 31.359375 13.769531 31.292969 13.890625 31.171875 C 14.011719 31.050781 14.078125 30.890625 14.078125 30.71875 L 14.078125 28.800781 Z M 17.921875 28.800781 L 17.921875 30.71875 C 17.921875 31.070312 18.207031 31.359375 18.558594 31.359375 C 18.914062 31.359375 19.199219 31.074219 19.199219 30.71875 L 19.199219 28.800781 Z M 23.039062 28.800781 L 23.039062 30.71875 C 23.039062 30.980469 23.191406 31.214844 23.433594 31.3125 C 23.671875 31.414062 23.949219 31.355469 24.132812 31.171875 C 24.253906 31.050781 24.320312 30.890625 24.320312 30.71875 L 24.320312 28.800781 Z M 23.039062 28.800781 "/>
</svg>

<svg role="img" viewBox="0 0 32 32" xmlns="http://www.w3.org/2000/svg"><path d="M8.32.64a.64.64 0 0 0-.453.188.64.64 0 0 0-.187.453V3.2h1.28V1.281a.64.64 0 0 0-.64-.64m5.121 0a.643.643 0 0 0-.64.64V3.2h1.277V1.281a.643.643 0 0 0-.637-.64m5.118 0a.643.643 0 0 0-.637.64V3.2h1.277V1.281a.64.64 0 0 0-.187-.453.64.64 0 0 0-.453-.187m5.12 0a.64.64 0 0 0-.64.64V3.2h1.281V1.281a.64.64 0 0 0-.187-.453.64.64 0 0 0-.453-.187M5.762 3.84A1.92 1.92 0 0 0 3.84 5.762v20.476c0 .508.203 1 .562 1.36.36.359.852.562 1.36.562h20.476c.508 0 1-.203 1.36-.562.359-.36.562-.852.562-1.36V5.762c0-.508-.203-1-.562-1.36a1.93 1.93 0 0 0-1.36-.562ZM7.68 6.398a1.282 1.282 0 1 1-.002 2.564 1.282 1.282 0 0 1 .002-2.564M1.28 7.68a.644.644 0 0 0-.601.64.647.647 0 0 0 .601.64H3.2V7.68Zm27.52 0v1.28h1.918a.643.643 0 0 0 0-1.28ZM1.28 12.8a.638.638 0 1 0 0 1.278H3.2v-1.277Zm27.52 0v1.278h1.918a.638.638 0 0 0 0-1.277ZM1.28 17.923a.64.64 0 0 0-.574.312.63.63 0 0 0 0 .653c.117.203.34.324.574.312H3.2v-1.277Zm27.52 0V19.2h1.918a.63.63 0 0 0 .574-.312.63.63 0 0 0 0-.653.65.65 0 0 0-.574-.312ZM1.28 23.039a.644.644 0 0 0-.601.64c0 .337.261.618.601.641H3.2v-1.28Zm23.04 0a1.28 1.28 0 0 1 1.277 1.285c0 .707-.575 1.281-1.285 1.278a1.28 1.28 0 0 1-1.278-1.282c0-.707.574-1.28 1.285-1.28m4.48 0v1.28h1.919a.641.641 0 0 0 0-1.28ZM7.68 28.8v1.919c0 .172.066.332.187.453a.642.642 0 0 0 1.094-.453V28.8Zm5.12 0v1.919a.64.64 0 0 0 1.09.453.64.64 0 0 0 .188-.453V28.8Zm5.122 0v1.919a.639.639 0 1 0 1.277 0V28.8Zm5.117 0v1.919a.638.638 0 0 0 1.094.453.64.64 0 0 0 .187-.453V28.8Zm0 0" fill="rgb(0%, 0%, 0%)"/></svg>
